X:30
T:the 29th of May -- or the King enjoys his own again
A:Wyresdale, Lancashire
B:A John Winder Book, April 1789
L:1/8
M:C|
O:England
Z:Richard Robinson 
%%TUNEURL: http://www.leeds.ac.uk/music/Info/RRTuneBk/gettune/00000db7.html
%%ID:00000db7
K:D
A2A2 d2d2 | efga f2(ef) | g2B2 c2(de) | f2e2 {d}d4 ::
edcd e3f | edcd e3f | g2B2 c2d2 | edcB A2fg |
abag f2ed | efga f2ef | g2B2 c2(de) | f2e2 {d}d4 :|
